packages/sources/assets/src/assets/flag-csa.svg

<svg width="28" height="20" viewBox="0 0 28 20" fill="none" xmlns="http://www.w3.org/2000/svg">
<rect width="28" height="20" rx="2" fill="white"/>
<mask id="mask0_503_3400" style="mask-type:alpha" maskUnits="userSpaceOnUse" x="0" y="0" width="28" height="20">
<rect width="28" height="20" rx="2" fill="white"/>
</mask>
<g mask="url(#mask0_503_3400)">
<rect width="28" height="20" fill="#19BFBF"/>
<path fill-rule="evenodd" clip-rule="evenodd" d="M9.99998 16.041C9.99998 16.0138 10.0033 15.9866 10.0099 15.9602L10.6666 13.3333L11.3098 10.7608C11.3251 10.6993 11.3227 10.6347 11.3026 10.5746L10.7103 8.79766C10.6824 8.71379 10.6222 8.64446 10.5432 8.60492L9.51758 8.09214C9.40465 8.03567 9.33331 7.92025 9.33331 7.79399V5.41203C9.33331 5.36028 9.34536 5.30924 9.3685 5.26296L9.99998 4.00001L10.5745 2.85093C10.631 2.73801 10.7464 2.66667 10.8727 2.66667H14.3333C14.5174 2.66667 14.6666 2.81591 14.6666 3.00001V3.66667C14.6666 3.85077 14.8159 4.00001 15 4.00001H15.6666C15.8507 4.00001 16 4.14924 16 4.33334V5.12733C16 5.25358 16.0713 5.36901 16.1842 5.42547L18.4824 6.57454C18.5953 6.631 18.6666 6.74643 18.6666 6.87268V7.92132C18.6666 7.97306 18.6546 8.0241 18.6315 8.07039L18.0396 9.25416C18.0136 9.30605 17.9746 9.35026 17.9263 9.38244L16.0736 10.6176C16.0254 10.6497 15.9863 10.694 15.9604 10.7458L14.7062 13.2542C14.6803 13.306 14.6413 13.3503 14.593 13.3824L12.7403 14.6176C12.692 14.6497 12.653 14.694 12.6271 14.7458L11.4254 17.1491C11.369 17.262 11.2536 17.3333 11.1273 17.3333H10.3333C10.1492 17.3333 9.99998 17.1841 9.99998 17V16.041Z" fill="white"/>
</g>
</svg>

<svg width="28" height="20" fill="none" xmlns="http://www.w3.org/2000/svg"><rect width="28" height="20" rx="2" fill="#fff"/><mask id="a" style="mask-type:alpha" maskUnits="userSpaceOnUse" x="0" y="0" width="28" height="20"><rect width="28" height="20" rx="2" fill="#fff"/></mask><g mask="url(#a)"><path fill="#19BFBF" d="M0 0h28v20H0z"/><path fill-rule="evenodd" clip-rule="evenodd" d="M10 16.041c0-.027.003-.054.01-.08l.657-2.628.643-2.572a.333.333 0 0 0-.007-.186l-.593-1.777a.333.333 0 0 0-.167-.193l-1.025-.513a.333.333 0 0 1-.185-.298V5.412c0-.052.012-.103.035-.149L10 4l.575-1.15a.333.333 0 0 1 .298-.183h3.46c.184 0 .334.149.334.333v.667c0 .184.149.333.333.333h.667c.184 0 .333.15.333.333v.794c0 .127.071.242.184.298l2.298 1.15a.333.333 0 0 1 .185.298V7.92a.334.334 0 0 1-.036.15l-.591 1.183a.334.334 0 0 1-.114.128l-1.852 1.236a.333.333 0 0 0-.114.128l-1.254 2.508a.332.332 0 0 1-.113.128l-1.853 1.236a.332.332 0 0 0-.113.128l-1.202 2.403a.333.333 0 0 1-.298.184h-.794A.333.333 0 0 1 10 17v-.959Z" fill="#fff"/></g></svg>
